svg/emoji_u203c.svg

<?xml version="1.0" encoding="UTF-8"?>
<svg width="128" height="128" enable-background="new 0 0 128 128" xmlns="http://www.w3.org/2000/svg"><g fill="url(#b)"><linearGradient id="b" x1="84.002" x2="84.002" y1="4.4005" y2="123.34" gradientUnits="userSpaceOnUse"><stop stop-color="#FF5252" offset="0"/><stop stop-color="#FD4D4D" offset=".2061"/><stop stop-color="#F64040" offset=".4365"/><stop stop-color="#EA2A2A" offset=".6787"/><stop stop-color="#DA0B0B" offset=".9274"/><stop stop-color="#D50000" offset="1"/></linearGradient><ellipse cx="84" cy="112" rx="12" ry="12"/><path d="m90.14 92.01h-12.28c-2.19 0-3.98-1.74-4.03-3.91l-1.83-80c-0.05-2.24 1.77-4.09 4.03-4.09h15.94c2.26 0 4.08 1.85 4.03 4.09l-1.83 80c-0.05 2.17-1.84 3.91-4.03 3.91z"/></g><g fill="#424242" opacity=".2"><path d="m84 103.01c4.96 0 9 4.04 9 9s-4.04 9-9 9-9-4.04-9-9c0-4.97 4.04-9 9-9m0-3c-6.63 0-12 5.37-12 12s5.37 12 12 12 12-5.37 12-12-5.37-12-12-12z"/><path d="m91.97 7.01c0.39 0 0.63 0.2 0.75 0.31 0.13 0.14 0.29 0.37 0.28 0.71l-1.83 80c-0.01 0.54-0.47 0.98-1.03 0.98h-12.28c-0.56 0-1.02-0.44-1.03-0.98l-1.83-80c-0.01-0.34 0.15-0.57 0.28-0.71 0.11-0.12 0.36-0.31 0.75-0.31h15.94m0-3h-15.94c-2.26 0-4.08 1.85-4.03 4.09l1.83 80c0.05 2.17 1.84 3.91 4.03 3.91h12.28c2.19 0 3.98-1.74 4.03-3.91l1.83-80c0.05-2.25-1.77-4.09-4.03-4.09z"/></g><g fill="url(#a)"><linearGradient id="a" x1="43.998" x2="43.998" y1="4.4005" y2="123.34" gradientUnits="userSpaceOnUse"><stop stop-color="#FF5252" offset="0"/><stop stop-color="#FD4D4D" offset=".2061"/><stop stop-color="#F64040" offset=".4365"/><stop stop-color="#EA2A2A" offset=".6787"/><stop stop-color="#DA0B0B" offset=".9274"/><stop stop-color="#D50000" offset="1"/></linearGradient><ellipse cx="44" cy="112" rx="12" ry="12"/><path d="m50.14 92.01h-12.28c-2.19 0-3.98-1.74-4.03-3.91l-1.83-80c-0.05-2.24 1.77-4.09 4.03-4.09h15.94c2.26 0 4.08 1.85 4.03 4.09l-1.83 80c-0.05 2.17-1.84 3.91-4.03 3.91z"/></g><g fill="#424242" opacity=".2"><path d="m44 103.01c4.96 0 9 4.04 9 9s-4.04 9-9 9-9-4.04-9-9c0-4.97 4.03-9 9-9m0-3c-6.63 0-12 5.37-12 12s5.37 12 12 12 12-5.37 12-12-5.37-12-12-12z"/><path d="m51.97 7.01c0.39 0 0.63 0.2 0.75 0.31 0.13 0.14 0.29 0.37 0.28 0.71l-1.83 80c-0.01 0.54-0.47 0.98-1.03 0.98h-12.28c-0.56 0-1.02-0.44-1.03-0.98l-1.83-80c-0.01-0.34 0.15-0.57 0.28-0.71 0.11-0.12 0.36-0.31 0.75-0.31h15.94m0-3h-15.94c-2.26 0-4.08 1.85-4.03 4.09l1.83 80c0.05 2.17 1.84 3.91 4.03 3.91h12.28c2.19 0 3.98-1.74 4.03-3.91l1.83-80c0.05-2.25-1.77-4.09-4.03-4.09z"/></g></svg>

<svg width="128" height="128" style="enable-background:new 0 0 128 128;" xmlns="http://www.w3.org/2000/svg" xmlns:xlink="http://www.w3.org/1999/xlink">
  <g>
    <g>
      <g>
        <linearGradient id="SVGID_1_" gradientUnits="userSpaceOnUse" x1="84.0022" x2="84.0022" y1="4.4005" y2="123.3385">
          <stop offset="0" style="stop-color:#FF5252"/>
          <stop offset="0.2061" style="stop-color:#FD4D4D"/>
          <stop offset="0.4365" style="stop-color:#F64040"/>
          <stop offset="0.6787" style="stop-color:#EA2A2A"/>
          <stop offset="0.9274" style="stop-color:#DA0B0B"/>
          <stop offset="1" style="stop-color:#D50000"/>
        </linearGradient>
        <ellipse cx="84" cy="112" rx="12" ry="12" style="fill:url(#SVGID_1_);"/>
        <linearGradient id="SVGID_2_" gradientUnits="userSpaceOnUse" x1="84.0022" x2="84.0022" y1="4.4005" y2="123.3385">
          <stop offset="0" style="stop-color:#FF5252"/>
          <stop offset="0.2061" style="stop-color:#FD4D4D"/>
          <stop offset="0.4365" style="stop-color:#F64040"/>
          <stop offset="0.6787" style="stop-color:#EA2A2A"/>
          <stop offset="0.9274" style="stop-color:#DA0B0B"/>
          <stop offset="1" style="stop-color:#D50000"/>
        </linearGradient>
        <path d="M90.14,92.01H77.86c-2.19,0-3.98-1.74-4.03-3.91L72,8.1c-0.05-2.24,1.77-4.09,4.03-4.09 h15.94c2.26,0,4.08,1.85,4.03,4.09l-1.83,80C94.12,90.27,92.33,92.01,90.14,92.01z" style="fill:url(#SVGID_2_);"/>
      </g>
      <g style="opacity:0.2;">
        <path d="M84,103.01c4.96,0,9,4.04,9,9c0,4.96-4.04,9-9,9c-4.96,0-9-4.04-9-9 C75,107.04,79.04,103.01,84,103.01 M84,100.01c-6.63,0-12,5.37-12,12s5.37,12,12,12c6.63,0,12-5.37,12-12 S90.63,100.01,84,100.01L84,100.01z" style="fill:#424242;"/>
        <path d="M91.97,7.01c0.39,0,0.63,0.2,0.75,0.31c0.13,0.14,0.29,0.37,0.28,0.71l-1.83,80 c-0.01,0.54-0.47,0.98-1.03,0.98H77.86c-0.56,0-1.02-0.44-1.03-0.98L75,8.03c-0.01-0.34,0.15-0.57,0.28-0.71 c0.11-0.12,0.36-0.31,0.75-0.31H91.97 M91.97,4.01H76.03c-2.26,0-4.08,1.85-4.03,4.09l1.83,80c0.05,2.17,1.84,3.91,4.03,3.91 h12.28c2.19,0,3.98-1.74,4.03-3.91L96,8.1C96.05,5.85,94.23,4.01,91.97,4.01L91.97,4.01z" style="fill:#424242;"/>
      </g>
    </g>
    <g>
      <g>
        <linearGradient id="SVGID_3_" gradientUnits="userSpaceOnUse" x1="43.9978" x2="43.9978" y1="4.4005" y2="123.3385">
          <stop offset="0" style="stop-color:#FF5252"/>
          <stop offset="0.2061" style="stop-color:#FD4D4D"/>
          <stop offset="0.4365" style="stop-color:#F64040"/>
          <stop offset="0.6787" style="stop-color:#EA2A2A"/>
          <stop offset="0.9274" style="stop-color:#DA0B0B"/>
          <stop offset="1" style="stop-color:#D50000"/>
        </linearGradient>
        <ellipse cx="44" cy="112" rx="12" ry="12" style="fill:url(#SVGID_3_);"/>
        <linearGradient id="SVGID_4_" gradientUnits="userSpaceOnUse" x1="43.9978" x2="43.9978" y1="4.4005" y2="123.3385">
          <stop offset="0" style="stop-color:#FF5252"/>
          <stop offset="0.2061" style="stop-color:#FD4D4D"/>
          <stop offset="0.4365" style="stop-color:#F64040"/>
          <stop offset="0.6787" style="stop-color:#EA2A2A"/>
          <stop offset="0.9274" style="stop-color:#DA0B0B"/>
          <stop offset="1" style="stop-color:#D50000"/>
        </linearGradient>
        <path d="M50.14,92.01H37.86c-2.19,0-3.98-1.74-4.03-3.91L32,8.1c-0.05-2.24,1.77-4.09,4.03-4.09 h15.94c2.26,0,4.08,1.85,4.03,4.09l-1.83,80C54.12,90.27,52.33,92.01,50.14,92.01z" style="fill:url(#SVGID_4_);"/>
      </g>
      <g style="opacity:0.2;">
        <path d="M44,103.01c4.96,0,9,4.04,9,9c0,4.96-4.04,9-9,9c-4.96,0-9-4.04-9-9 C35,107.04,39.03,103.01,44,103.01 M44,100.01c-6.63,0-12,5.37-12,12s5.37,12,12,12s12-5.37,12-12S50.63,100.01,44,100.01 L44,100.01z" style="fill:#424242;"/>
        <path d="M51.97,7.01c0.39,0,0.63,0.2,0.75,0.31c0.13,0.14,0.29,0.37,0.28,0.71l-1.83,80 c-0.01,0.54-0.47,0.98-1.03,0.98H37.86c-0.56,0-1.02-0.44-1.03-0.98L35,8.03c-0.01-0.34,0.15-0.57,0.28-0.71 c0.11-0.12,0.36-0.31,0.75-0.31H51.97 M51.97,4.01H36.03c-2.26,0-4.08,1.85-4.03,4.09l1.83,80c0.05,2.17,1.84,3.91,4.03,3.91 h12.28c2.19,0,3.98-1.74,4.03-3.91L56,8.1C56.05,5.85,54.23,4.01,51.97,4.01L51.97,4.01z" style="fill:#424242;"/>
      </g>
    </g>
  </g>
</svg>
